TiltedControls/Resources/InputPromptImages/Microsoft/Xbox Series XS-DPadLeftUp.svg

<svg xmlns="http://www.w3.org/2000/svg" version="1.1" xmlns:xlink="http://www.w3.org/1999/xlink" x="0px" y="0px" viewBox="0 0 100 100">
<defs>
<linearGradient id="Gradient_1" gradientUnits="userSpaceOnUse" x1="34.8875" y1="59" x2="26.3125" y2="50.55" spreadMethod="pad">
<stop  offset="0%" stop-color="#313131"/>

<stop  offset="100%" stop-color="#D7D7D7"/>
</linearGradient>

<linearGradient id="Gradient_2" gradientUnits="userSpaceOnUse" x1="41.65" y1="58.5" x2="33.050000000000004" y2="49.95" spreadMethod="pad">
<stop  offset="0%" stop-color="#4F4F4F"/>

<stop  offset="100%" stop-color="#F5F5F5"/>
</linearGradient>

<linearGradient id="Gradient_3" gradientUnits="userSpaceOnUse" x1="38.087500000000006" y1="51" x2="31.812500000000004" y2="45.35" spreadMethod="pad">
<stop  offset="0%" stop-color="#626262"/>

<stop  offset="100%" stop-color="#FFFFFF"/>
</linearGradient>

<linearGradient id="Gradient_4" gradientUnits="userSpaceOnUse" x1="29.900000000000002" y1="45.7" x2="12.3" y2="45.7" spreadMethod="pad">
<stop  offset="0%" stop-color="#1B1B1B"/>

<stop  offset="100%" stop-color="#404040"/>
</linearGradient>

<g id="Layer1_0_FILL">
<path fill="#1B1B1B" stroke="none" d="
M 8.2 67.65
Q 11.5 75.5 18 82 24.55 88.55 32.45 91.85
L 32.45 67.65 8.2 67.65
M 28.95 86.15
Q 24.45 83.5 20.45 79.5 16.55 75.6 13.9 71.15
L 28.95 71.15 28.95 86.15
M 32.45 8.25
Q 24.55 11.55 18 18.1 11.5 24.6 8.2 32.5
L 32.45 32.5 32.45 8.25
M 20.45 20.55
Q 24.45 16.6 28.95 13.9
L 28.95 29 13.9 29
Q 16.55 24.5 20.45 20.55
M 81.95 82
Q 88.45 75.5 91.7 67.65
L 67.6 67.65 67.6 91.75
Q 75.45 88.5 81.95 82
M 71.1 86.1
L 71.1 71.15 86.05 71.15
Q 83.4 75.6 79.45 79.5 75.55 83.45 71.1 86.1
M 91.7 32.5
Q 88.45 24.6 81.95 18.1 75.45 11.6 67.6 8.3
L 67.6 32.5 91.7 32.5
M 71.1 14
Q 75.55 16.65 79.45 20.55 83.4 24.5 86.05 29
L 71.1 29 71.1 14 Z"/>

<path fill="#282828" stroke="none" d="
M 20.45 79.5
Q 24.45 83.5 28.95 86.15
L 28.95 71.15 13.9 71.15
Q 16.55 75.6 20.45 79.5
M 28.95 13.9
Q 24.45 16.6 20.45 20.55 16.55 24.5 13.9 29
L 28.95 29 28.95 13.9
M 71.1 71.15
L 71.1 86.1
Q 75.55 83.45 79.45 79.5 83.4 75.6 86.05 71.15
L 71.1 71.15
M 79.45 20.55
Q 75.55 16.65 71.1 14
L 71.1 29 86.05 29
Q 83.4 24.5 79.45 20.55 Z"/>

<path fill="url(#Gradient_1)" stroke="none" d="
M 91.7 67.65
Q 95.1 59.55 95.1 50.05 95.1 40.55 91.7 32.5
L 67.6 32.5 67.6 8.3
Q 59.5 4.9 49.95 4.9 40.5 4.9 32.45 8.25
L 32.45 32.5 8.2 32.5
Q 4.85 40.55 4.85 50.05 4.85 59.55 8.2 67.65
L 32.45 67.65 32.45 91.85
Q 40.5 95.2 49.95 95.2 59.5 95.2 67.6 91.75
L 67.6 67.65 91.7 67.65
M 87.6 50.05
Q 87.6 55.35 86.35 60.15
L 67.6 60.15
Q 64.5 60.15 62.3 62.35 60.1 64.55 60.1 67.65
L 60.1 86.45
Q 55.3 87.7 49.95 87.7 44.7 87.7 39.95 86.45
L 39.95 67.65
Q 39.95 64.55 37.75 62.35 35.55 60.15 32.45 60.15
L 13.6 60.15
Q 12.35 55.35 12.35 50.05 12.35 44.75 13.6 40
L 32.45 40
Q 35.55 40 37.75 37.8 39.95 35.6 39.95 32.5
L 39.95 13.6
Q 44.7 12.4 49.95 12.4 55.3 12.4 60.1 13.65
L 60.1 32.5
Q 60.1 35.6 62.3 37.8 64.5 40 67.6 40
L 86.35 40
Q 87.6 44.75 87.6 50.05 Z"/>

<path fill="url(#Gradient_2)" stroke="none" d="
M 86.35 60.15
Q 87.6 55.35 87.6 50.05 87.6 44.75 86.35 40
L 67.6 40
Q 64.5 40 62.3 37.8 60.1 35.6 60.1 32.5
L 60.1 13.65
Q 55.3 12.4 49.95 12.4 44.7 12.4 39.95 13.6
L 39.95 32.5
Q 39.95 35.6 37.75 37.8 35.55 40 32.45 40
L 13.6 40
Q 12.35 44.75 12.35 50.05 12.35 55.35 13.6 60.15
L 32.45 60.15
Q 35.55 60.15 37.75 62.35 39.95 64.55 39.95 67.65
L 39.95 86.45
Q 44.7 87.7 49.95 87.7 55.3 87.7 60.1 86.45
L 60.1 67.65
Q 60.1 64.55 62.3 62.35 64.5 60.15 67.6 60.15
L 86.35 60.15 Z"/>
</g>

<path id="Layer1_0_1_STROKES" stroke="#1B1B1B" stroke-width="5" stroke-linejoin="round" stroke-linecap="round" fill="none" d="
M 67.6 8.3
Q 75.45 11.6 81.95 18.1 88.45 24.6 91.7 32.5 95.1 40.55 95.1 50.05 95.1 59.55 91.7 67.65 88.45 75.5 81.95 82 75.45 88.5 67.6 91.75 59.5 95.2 49.95 95.2 40.5 95.2 32.45 91.85 24.55 88.55 18 82 11.5 75.5 8.2 67.65
M 8.2 32.5
Q 11.5 24.6 18 18.1 24.55 11.55 32.45 8.25 40.5 4.9 49.95 4.9 59.5 4.9 67.6 8.3
L 67.6 32.5 91.7 32.5
M 32.45 32.5
L 32.45 8.25
M 32.45 91.85
L 32.45 67.65
M 67.6 91.75
L 67.6 67.65 91.7 67.65"/>

<path id="Layer1_0_2_STROKES" stroke="url(#Gradient_3)" stroke-width="4" stroke-linejoin="round" stroke-linecap="round" fill="none" d="
M 86.35 40
Q 87.6 44.75 87.6 50.05 87.6 55.35 86.35 60.15
L 67.6 60.15
Q 64.5 60.15 62.3 62.35 60.1 64.55 60.1 67.65
L 60.1 86.45
Q 55.3 87.7 49.95 87.7 44.7 87.7 39.95 86.45
L 39.95 67.65
Q 39.95 64.55 37.75 62.35 35.55 60.15 32.45 60.15
L 13.6 60.15
Q 12.35 55.35 12.35 50.05 12.35 44.75 13.6 40
L 32.45 40
Q 35.55 40 37.75 37.8 39.95 35.6 39.95 32.5
L 39.95 13.6
Q 44.7 12.4 49.95 12.4 55.3 12.4 60.1 13.65
L 60.1 32.5
Q 60.1 35.6 62.3 37.8 64.5 40 67.6 40
L 86.35 40 Z"/>

<path id="Layer1_0_3_STROKES" stroke="url(#Gradient_4)" stroke-width="5" stroke-linejoin="round" stroke-linecap="round" fill="none" d="
M 8.2 67.65
Q 4.85 59.55 4.85 50.05 4.85 40.55 8.2 32.5
L 32.45 32.5
M 8.2 67.65
L 32.45 67.65"/>

</defs>

<g transform="matrix( 1, 0, 0, 1, 0,0) ">
<use xlink:href="#Layer1_0_FILL"/>

<use xlink:href="#Layer1_0_1_STROKES"/>

<use xlink:href="#Layer1_0_2_STROKES"/>

<use xlink:href="#Layer1_0_3_STROKES"/>
</g>

<g transform="matrix( 1, 0, 0, 1, -3.4,-28) ">
<clipPath id="Mask_Mask_1">
<rect x="3.8" y="-2" width="99.2" height="20.8" fill="#FFFFFF" stroke="none"/>
</clipPath>

<text clip-path="url(#Mask_Mask_1)" writing-mode="lr"><tspan x="5.85" y="13.6" baseline-shift="0%" kerning="auto" font-family="Arial_Regular" font-size="15" fill="#999999" xml:space="preserve">Xbox Series X</tspan></text>
</g>
</svg>

<?xml version="1.0" encoding="utf-8"?>
<!-- Generator: Adobe Illustrator 24.1.2, SVG Export Plug-In . SVG Version: 6.00 Build 0)  -->
<svg version="1.1" id="Layer_1" xmlns="http://www.w3.org/2000/svg" xmlns:xlink="http://www.w3.org/1999/xlink" x="0px" y="0px"
	 viewBox="0 0 100 100" style="enable-background:new 0 0 100 100;" xml:space="preserve">
<g transform="matrix( 1, 0, 0, 1, 0,0) ">
	<g>
		<g id="Layer1_0_FILL">
			<path style="fill:#1B1B1B;" d="M8.2,67.7c2.2,5.2,5.5,10,9.8,14.3c4.4,4.4,9.2,7.7,14.5,9.8V67.7H8.2 M29,86.2
				c-3-1.8-5.8-4-8.5-6.7c-2.6-2.6-4.8-5.4-6.6-8.3H29V86.2 M32.5,8.3c-5.3,2.2-10.1,5.5-14.5,9.9c-4.3,4.3-7.6,9.1-9.8,14.4h24.3
				V8.3 M20.5,20.5c2.7-2.6,5.5-4.8,8.5-6.6V29H13.9C15.7,26,17.9,23.2,20.5,20.5 M81.9,82c4.3-4.3,7.6-9.1,9.8-14.3H67.6v24.1
				C72.8,89.6,77.6,86.3,81.9,82 M71.1,86.1V71.2h15c-1.8,3-4,5.8-6.6,8.3C76.8,82.1,74.1,84.3,71.1,86.1 M91.7,32.5
				c-2.2-5.3-5.4-10.1-9.8-14.4c-4.3-4.3-9.1-7.6-14.3-9.8v24.2H91.7 M71.1,14c3,1.8,5.8,3.9,8.3,6.5c2.6,2.6,4.8,5.5,6.6,8.5h-15
				V14z"/>
			<path style="fill:#282828;" d="M20.5,79.5c2.7,2.7,5.5,4.9,8.5,6.7v-15H13.9C15.7,74.1,17.9,76.9,20.5,79.5 M29,13.9
				c-3,1.8-5.8,4-8.5,6.6c-2.6,2.6-4.8,5.5-6.6,8.5H29V13.9 M71.1,71.2v14.9c3-1.8,5.8-4,8.3-6.6c2.6-2.6,4.8-5.4,6.6-8.3H71.1
				 M79.4,20.5c-2.6-2.6-5.4-4.8-8.3-6.5v15h15C84.3,26,82.1,23.2,79.4,20.5z"/>
			
				<linearGradient id="SVGID_1_" gradientUnits="userSpaceOnUse" x1="46.8071" y1="55.096" x2="38.2321" y2="63.546" gradientTransform="matrix(1 0 0 -1 0 102)">
				<stop  offset="0" style="stop-color:#313131"/>
				<stop  offset="1" style="stop-color:#D7D7D7"/>
			</linearGradient>
			<path style="fill:url(#SVGID_1_);" d="M91.7,67.7c2.3-5.4,3.4-11.3,3.4-17.6S94,37.9,91.7,32.5H67.6V8.3C62.2,6,56.3,4.9,50,4.9
				c-6.3,0-12.1,1.1-17.5,3.3v24.3H8.2C6,37.9,4.8,43.7,4.8,50S6,62.3,8.2,67.7h24.3v24.2c5.4,2.2,11.2,3.3,17.5,3.3
				c6.4,0,12.3-1.2,17.6-3.4V67.7H91.7 M87.6,50c0,3.5-0.4,6.9-1.3,10.1H67.6c-2.1,0-3.8,0.7-5.3,2.2c-1.5,1.5-2.2,3.2-2.2,5.3v18.8
				c-3.2,0.8-6.6,1.2-10.1,1.3c-3.5,0-6.8-0.4-10-1.3V67.7c0-2.1-0.7-3.8-2.2-5.3c-1.5-1.5-3.2-2.2-5.3-2.2H13.6
				c-0.8-3.2-1.2-6.6-1.3-10.1c0-3.5,0.4-6.9,1.3-10h18.9c2.1,0,3.8-0.7,5.3-2.2s2.2-3.2,2.2-5.3V13.6c3.2-0.8,6.5-1.2,10-1.2
				c3.6,0,6.9,0.4,10.1,1.3v18.9c0,2.1,0.7,3.8,2.2,5.3s3.2,2.2,5.3,2.2h18.8C87.2,43.2,87.6,46.5,87.6,50z"/>
			
				<linearGradient id="SVGID_2_" gradientUnits="userSpaceOnUse" x1="50.038" y1="51.9371" x2="41.438" y2="60.4871" gradientTransform="matrix(1 0 0 -1 0 102)">
				<stop  offset="0" style="stop-color:#4F4F4F"/>
				<stop  offset="1" style="stop-color:#F5F5F5"/>
			</linearGradient>
			<path style="fill:url(#SVGID_2_);" d="M86.3,60.2c0.8-3.2,1.3-6.6,1.3-10.1s-0.4-6.9-1.3-10H67.6c-2.1,0-3.8-0.7-5.3-2.2
				s-2.2-3.2-2.2-5.3V13.6c-3.2-0.8-6.6-1.3-10.1-1.3c-3.5,0-6.8,0.4-10,1.2v18.9c0,2.1-0.7,3.8-2.2,5.3S34.5,40,32.5,40H13.6
				c-0.8,3.2-1.2,6.5-1.3,10c0,3.5,0.4,6.9,1.3,10.1h18.9c2.1,0,3.8,0.7,5.3,2.2c1.5,1.5,2.2,3.2,2.2,5.3v18.8
				c3.2,0.8,6.5,1.2,10,1.3c3.6,0,6.9-0.4,10.1-1.3V67.7c0-2.1,0.7-3.8,2.2-5.3c1.5-1.5,3.2-2.2,5.3-2.2H86.3z"/>
		</g>
	</g>
	<g>
		<path id="Layer1_0_1_STROKES" style="fill:none;stroke:#1B1B1B;stroke-width:5;stroke-linecap:round;stroke-linejoin:round;" d="
			M67.6,8.3c5.2,2.2,10,5.5,14.3,9.8c4.3,4.3,7.6,9.1,9.8,14.4c2.3,5.4,3.4,11.2,3.4,17.5S94,62.3,91.7,67.7
			c-2.2,5.2-5.4,10-9.8,14.3c-4.3,4.3-9.1,7.6-14.3,9.8C62.2,94,56.3,95.2,50,95.2c-6.3,0-12.1-1.1-17.5-3.3
			C27.2,89.7,22.4,86.4,18,82c-4.3-4.3-7.6-9.1-9.8-14.3 M8.2,32.5c2.2-5.3,5.5-10.1,9.8-14.4c4.4-4.4,9.2-7.7,14.5-9.9
			C37.8,6,43.6,4.9,50,4.9c6.4,0,12.3,1.1,17.6,3.4v24.2h24.1 M32.5,32.5V8.3 M32.5,91.8V67.7 M67.6,91.8V67.7h24.1"/>
	</g>
	<g>
		
			<linearGradient id="Layer1_0_2_STROKES_1_" gradientUnits="userSpaceOnUse" x1="43.9047" y1="57.4607" x2="37.6297" y2="63.1107" gradientTransform="matrix(1 0 0 -1 0 102)">
			<stop  offset="0" style="stop-color:#626262"/>
			<stop  offset="1" style="stop-color:#FFFFFF"/>
		</linearGradient>
		
			<path id="Layer1_0_2_STROKES" style="fill:none;stroke:url(#Layer1_0_2_STROKES_1_);stroke-width:4;stroke-linecap:round;stroke-linejoin:round;" d="
			M86.3,40c0.8,3.2,1.3,6.5,1.3,10s-0.4,6.9-1.3,10.1H67.6c-2.1,0-3.8,0.7-5.3,2.2c-1.5,1.5-2.2,3.2-2.2,5.3v18.8
			c-3.2,0.8-6.6,1.2-10.1,1.3c-3.5,0-6.8-0.4-10-1.3V67.7c0-2.1-0.7-3.8-2.2-5.3c-1.5-1.5-3.2-2.2-5.3-2.2H13.6
			c-0.8-3.2-1.2-6.6-1.3-10.1c0-3.5,0.4-6.9,1.3-10h18.9c2.1,0,3.8-0.7,5.3-2.2s2.2-3.2,2.2-5.3V13.6c3.2-0.8,6.5-1.2,10-1.2
			c3.6,0,6.9,0.4,10.1,1.3v18.9c0,2.1,0.7,3.8,2.2,5.3s3.2,2.2,5.3,2.2H86.3z"/>
	</g>
	<g>
		
			<linearGradient id="Layer1_0_3_STROKES_1_" gradientUnits="userSpaceOnUse" x1="29.9" y1="51.925" x2="12.3" y2="51.925" gradientTransform="matrix(1 0 0 -1 0 102)">
			<stop  offset="0" style="stop-color:#1B1B1B"/>
			<stop  offset="1" style="stop-color:#404040"/>
		</linearGradient>
		
			<path id="Layer1_0_3_STROKES" style="fill:none;stroke:url(#Layer1_0_3_STROKES_1_);stroke-width:5;stroke-linecap:round;stroke-linejoin:round;" d="
			M8.2,67.7C6,62.3,4.8,56.4,4.8,50S6,37.9,8.2,32.5h24.3 M8.2,67.7h24.3"/>
	</g>
</g>
</svg>
